icons/cake-3-fill.svg

<svg viewBox="0 0 24 24" fill="currentColor" xmlns="http://www.w3.org/2000/svg">
    <path d="M15.5 2C17.433 2 19 3.567 19 5.5C19 5.72679 18.9784 5.94854 18.9372 6.16332L18.9223 6.22941C20.7106 6.82471 22 8.51178 22 10.5C22 12.3741 20.8544 13.9806 19.2253 14.6574L18.1393 21.1644C18.0589 21.6466 17.6417 22 17.1529 22H6.84713C6.35829 22 5.9411 21.6466 5.86073 21.1644L4.832 14.994C3.24892 14.9037 2 13.5977 2 12C2 10.6926 2.83627 9.5806 4.00306 9.16963L4 9C4 5.68629 6.68629 3 10 3C10.9216 3 11.7947 3.20779 12.575 3.57908C13.1988 2.62827 14.276 2 15.5 2ZM11 15H9V20H11V15ZM15 15H13V20H15V15ZM17.5 13C18.8807 13 20 11.8807 20 10.5C20 9.11929 18.8807 8 17.5 8C17.1643 8 16.8417 8.06519 16.5442 8.18959L16.3688 8.27129C15.4021 8.76932 14.2253 8.40165 13.7059 7.46716L13.6362 7.32984C12.9876 5.92108 11.5778 5 10 5C7.8578 5 6.10892 6.68397 6.0046 8.76748L5.99967 8.96394L6.00273 9.13357C6.0173 9.94127 5.54534 10.6726 4.8166 10.9967L4.6675 11.056C4.27121 11.1956 4 11.5722 4 12C4 12.5523 4.44772 13 5 13H17.5Z"/>
</svg>

<svg xmlns="http://www.w3.org/2000/svg" viewBox="0 0 24 24">
    <g>
        <path fill="none" d="M0 0h24v24H0z"/>
        <path fill-rule="nonzero" d="M15.5 2a3.5 3.5 0 0 1 3.437 4.163l-.015.066a4.502 4.502 0 0 1 .303 8.428l-1.086 6.507a1 1 0 0 1-.986.836H6.847a1 1 0 0 1-.986-.836l-1.029-6.17a3 3 0 0 1-.829-5.824L4 9a6 6 0 0 1 8.575-5.42A3.493 3.493 0 0 1 15.5 2zM11 15H9v5h2v-5zm4 0h-2v5h2v-5zm2.5-2a2.5 2.5 0 1 0-.956-4.81l-.175.081a2 2 0 0 1-2.663-.804l-.07-.137A4 4 0 0 0 10 5C7.858 5 6.109 6.684 6.005 8.767L6 8.964l.003.17a2 2 0 0 1-1.186 1.863l-.15.059A1.001 1.001 0 0 0 5 13h12.5z"/>
    </g>
</svg>
